X: 32146
T: Peter Murphy's
R: jig
M: 6/8
K: Gmajor
BGE D2B,|DEG AGA|BGE D2B,|DEF G3||
BGE D2B,|DEG AGE|DEG ABA|AGF G3||
|:DAD BDD|BDD AGE|DAD BDD|AGF G3|
DAD BDD|BDD AGE|DEG ABA|AGF G3:|

